X:652
T:Willie Mann of Paddy
C:Joe Buchanan's Scottish Tome - Page 198.2
I:198 2
C:Angus Cameron
R:Reel
Z:Carl Allison
L:1/8
M:4/4
K:A
ed | "A"c2 A2 "A"EAce | "A"a2 ga "A"fece | "Bm"d2 B2 "Bm7"Bcde | "B7"fedc "E7"BdcB |
"A"c2 A2 EAce | "A"a2 ga f"A"ece | "D"defa "E7"ecdB | "A"c2 A2 A2 :|
cd | "A"e^def "A"ecAc | "A"eaga "D7"ecAc | "G"dcde "G"dBGB | "G"d=gfg "E7"dBBd |
"A"edef "A"ecAc | "A"eaga "A7"ecAc | "D"defa "E7"ecdB | "A"c2 A2 "E7"A2 cd |
"A"e=def "A"ecAc | "A"eaga "D7"ecAc | "G"dcde "G"dBGB | "G"d=gfg "E7"dBBd |
"A"c2 A2 "A"EAce | "A"a2 ga "A7"fece | "D"defa "E7"ecdB | "A"c2 A2 A2 |]

